X:84
T:Merry Thought, The
M:6/8
L:1/8
B:Thompson's Compleat Collection of 200 Favourite Country Dances, vol. 3 (London, 1773)
Z:Transcribed and edited by Flynn Titford-Mock, 2007
Z:abc's:AK/Fiddler's Companion
K:G
G3 BdB | cAG FED | G3 BdB | A3 D3 | G3 ABc | def gab | afd ge^c | d3 D3 :|
|: a3 afc | B3 B2d | e3 ecA | F3 F2G | ADA B2c | def g2c | BdB cAF | G3 [G,3G3] :|

